src/svgs/icon-thread.svg

<svg viewBox="0 0 64 64" fill="none" xmlns="http://www.w3.org/2000/svg">
  <path class="fill" fill-rule="evenodd" clip-rule="evenodd" d="M38.8243 25.8953C39.952 24.7314 41.814 24.6979 42.9831 25.8206L57.1007 39.3779C57.675 39.9293 57.9996 40.6894 58 41.4838C58.0004 42.2781 57.6767 43.0386 57.103 43.5906L42.9854 57.1772C41.8175 58.3011 39.9555 58.2697 38.8265 57.107C37.6975 55.9443 37.7291 54.0905 38.897 52.9666L50.8247 41.4876L38.8993 30.0356C37.7302 28.9129 37.6966 27.0592 38.8243 25.8953Z"/>
  <path class="fill" fill-rule="evenodd" clip-rule="evenodd" d="M8.86585 6C10.4486 6 11.7317 7.21594 11.7317 8.71588V25.5C11.7317 33.1721 18.5779 39.5682 27.2073 39.5682H50.1341C51.7169 39.5682 53 40.7842 53 42.2841C53 43.7841 51.7169 45 50.1341 45H27.2073C15.6038 45 6 36.3502 6 25.5V8.71588C6 7.21594 7.28309 6 8.86585 6Z"/>
</svg>

<svg xmlns="http://www.w3.org/2000/svg" fill="none" viewBox="0 0 64 64"><path fill="#000" d="M38.824 25.895a2.95 2.95 0 0 1 4.16-.074L57.1 39.378a2.921 2.921 0 0 1 .002 4.213L42.985 57.177a2.95 2.95 0 0 1-4.158-.07 2.919 2.919 0 0 1 .07-4.14l11.928-11.48-11.926-11.451a2.919 2.919 0 0 1-.075-4.14Z" class="fill" clip-rule="evenodd"/><path d="M8.866 6c1.583 0 2.866 1.216 2.866 2.716V25.5c0 7.672 6.846 14.068 15.475 14.068h22.927c1.583 0 2.866 1.216 2.866 2.716 0 1.5-1.283 2.716-2.866 2.716H27.207C15.604 45 6 36.35 6 25.5V8.716C6 7.216 7.283 6 8.866 6Z" class="fill" clip-rule="evenodd"/></svg>
